docs/images/info/3.svg

<svg width="62" height="106" viewBox="0 0 62 106" fill="none" xmlns="http://www.w3.org/2000/svg">
<path d="M46.9412 67.6237L38.3439 67.4518C38.4667 60.7213 40.4809 57.2333 42.2495 54.1628L42.7408 53.3031C43.5268 51.903 44.4603 50.5029 45.4428 49.0536C48.7343 44.0917 52.4926 38.4667 52.4926 30.1887C52.4926 19.7492 46.7201 8.59728 30.5327 8.59728C14.3452 8.59728 8.57276 19.7492 8.57276 30.1887C8.57276 39.1299 12.6258 45.0006 16.2121 50.1835C16.9244 51.2152 17.5876 52.1732 18.2017 53.1312C21.002 57.4789 22.6969 60.6231 22.6969 67.5746H14.0996C14.0996 62.8829 13.289 61.4091 10.98 57.7737C10.4396 56.914 9.80094 56.0297 9.16229 55.0717C5.3058 49.4712 4.77226e-05 41.8073 4.77226e-05 30.1887C-0.0245159 15.1558 9.43249 0 30.5327 0C51.6328 0 61.0898 15.1558 61.0898 30.1887C61.0898 41.0704 56.1771 48.4395 52.6154 53.819C51.7311 55.1454 50.8959 56.4227 50.2327 57.5526L49.6923 58.486C48.1448 61.188 47.0149 63.1286 46.9412 67.6483V67.6237Z" fill="#2B3B46"/>
<path d="M30.5828 105.47C20.7328 105.47 14.1006 99.1576 14.1006 89.7743H22.6979C22.6979 94.3677 25.4981 96.8732 30.5828 96.8732C35.6675 96.8732 38.3695 93.2623 38.3695 89.7743H46.9668C46.9668 98.4453 39.6222 105.47 30.5828 105.47Z" fill="#2B3B46"/>
<path d="M46.9668 66.592H14.1006V75.1893H46.9668V66.592Z" fill="#2B3B46"/>
<path d="M46.9668 81.5208H14.1006V90.118H46.9668V81.5208Z" fill="#2B3B46"/>
<path d="M23.2383 56.1278L28.8634 37.5332H20.8311L38.1484 13.7064L33.6042 28.9359H41.661L23.2383 56.1278Z" fill="#2B3B46"/>
</svg>

<svg xmlns="http://www.w3.org/2000/svg" width="62" height="106" fill="none"><path fill="#2B3B46" d="m46.941 67.624-8.597-.172c.123-6.73 2.137-10.219 3.905-13.29l.492-.859c.786-1.4 1.72-2.8 2.702-4.25 3.291-4.961 7.05-10.586 7.05-18.864 0-10.44-5.773-21.592-21.96-21.592S8.573 19.75 8.573 30.19c0 8.94 4.053 14.812 7.64 19.995.711 1.031 1.375 1.99 1.989 2.947 2.8 4.348 4.495 7.492 4.495 14.444H14.1c0-4.692-.811-6.166-3.12-9.801-.54-.86-1.18-1.744-1.818-2.702C5.306 49.472 0 41.807 0 30.189-.025 15.156 9.432 0 30.533 0S61.09 15.156 61.09 30.189c0 10.881-4.913 18.25-8.475 23.63-.884 1.326-1.72 2.604-2.382 3.734l-.54.933c-1.548 2.702-2.678 4.643-2.752 9.162zM30.583 105.47c-9.85 0-16.482-6.312-16.482-15.696h8.597c0 4.594 2.8 7.1 7.885 7.1 5.084 0 7.787-3.612 7.787-7.1h8.597c0 8.671-7.345 15.696-16.384 15.696"/><path fill="#2B3B46" d="M46.967 66.592H14.1v8.597h32.866zm0 14.928H14.1v8.598h32.866zM23.238 56.128l5.625-18.595h-8.032l17.317-23.827-4.544 15.23h8.057z"/></svg>
